X:1
T:Title
%%score ( 1 2 ) 3
L:1/8
Q:1/4=108
M:9/8
K:Ab
V:1 treble nm="Grand Piano, Soprano"
V:2 treble 
V:3 bass nm="Choir Pad, Meerut, Winnie Gabrielson"
V:1
 [Ec][=D_c][E=c] [CA]3 [CE]3 | [Ec][=D_c][E=c] [_DB]3 [DF]3 | .B3 z3 z3 | [Ec]2 [EB] [Ec]6 | %4
w: By~Minnie~M.~Gabrielson,~1906 * * * *||||
 .c3 z3 z3 | .B3 z3 z3 | .A3 z3 z3 | [DB]3 [CA]6 | EGB d2- [Gd] E2 E | [Ec]2 [DB] [CA]3 [CE]3 | %10
w: ||||||
 z3 A3 z3 | [=DB]2 [DF] [_DB]6 | c2 d e2- [Ae] e2- [Ae] | cB[EA] [DB]3 [DF]3 | %14
w: ||||
 AG[_CF] [=CE]2 [CA] [Ec]3 | [DB]3 [CA]6- | [CA]3 z3 z3 |] %17
w: |||
V:2
 x9 | x9 | F-[Fc][Fd] [EG]3 [Ed]3 | x9 | E-[Ed][Ee] [EA]3 [Ec]3 | F-[Fc][Fd] [DF]3 [DB]3 | %6
 _C-[CG][CF] [=CE]2 [CA] [Ec]3 | x9 | z3 .G3 G3 | x9 | A2 A C2 C [Cc]2 C | x9 | z3 .A3 .A3 | %13
 .E3 z3 z3 | ._C3 z3 z3 | x9 | x9 |] %17
V:3
 [A,,A,]2 [A,,A,] [A,,E,]3 [A,,A,]3 | [A,,A,]2 [A,,A,] [D,F,]3 [D,B,]3 | %2
 [D,B,][C,=A,][C,B,] [E,B,]3 [E,B,]3 | [E,A,]2 [E,G,] A,6 | A,B,[A,C] [A,C]3 A,3 | %5
 [D,A,]2 [D,A,] [D,A,]3 [D,F,]3 | [=D,F,]2 [D,A,] [E,A,]2 [E,A,] [E,A,]3 | [E,G,]3 [A,,A,]6 | %8
 z3 [E,B,]2 [E,B,] [E,B,]2 [E,B,] | [E,G,]2 [E,G,] [A,,A,]3 [A,,A,]3 | %10
 z3 [F,A,]2 [F,A,] [F,A,]2 [F,A,] | [B,,A,]2 [B,,A,] [E,G,]6 | z3 [A,C]2 [A,C] [A,C]2 [A,C] | %13
 [A,,A,][B,,G,][C,A,] [D,F,]3 [D,B,]3 | [=D,F,]2 [D,A,] [E,A,]2 [E,A,] [E,A,]3 | %15
 [E,G,]3 [A,,A,]6- | [A,,A,]3 z3 z3 |] %17

